images/11908466.svg

<?xml version="1.0" encoding="UTF-8"?>
<svg xmlns="http://www.w3.org/2000/svg" xmlns:xlink="http://www.w3.org/1999/xlink" width="300pt" height="300pt" viewBox="0 0 300 300" version="1.1">
<defs>
<g>
<symbol overflow="visible" id="glyph0-0">
<path style="stroke:none;" d="M 0.59375 2.125 L 0.59375 -8.46875 L 6.59375 -8.46875 L 6.59375 2.125 Z M 1.265625 1.453125 L 5.9375 1.453125 L 5.9375 -7.78125 L 1.265625 -7.78125 Z M 1.265625 1.453125 "/>
</symbol>
<symbol overflow="visible" id="glyph0-1">
<path style="stroke:none;" d="M 1.171875 -8.75 L 2.765625 -8.75 L 6.65625 -1.4375 L 6.65625 -8.75 L 7.796875 -8.75 L 7.796875 0 L 6.203125 0 L 2.328125 -7.3125 L 2.328125 0 L 1.171875 0 Z M 1.171875 -8.75 "/>
</symbol>
<symbol overflow="visible" id="glyph0-2">
<path style="stroke:none;" d="M 4.734375 -7.953125 C 3.867188 -7.953125 3.179688 -7.628906 2.671875 -6.984375 C 2.171875 -6.347656 1.921875 -5.472656 1.921875 -4.359375 C 1.921875 -3.265625 2.171875 -2.394531 2.671875 -1.75 C 3.179688 -1.113281 3.867188 -0.796875 4.734375 -0.796875 C 5.585938 -0.796875 6.265625 -1.113281 6.765625 -1.75 C 7.273438 -2.394531 7.53125 -3.265625 7.53125 -4.359375 C 7.53125 -5.472656 7.273438 -6.347656 6.765625 -6.984375 C 6.265625 -7.628906 5.585938 -7.953125 4.734375 -7.953125 Z M 4.734375 -8.90625 C 5.953125 -8.90625 6.925781 -8.492188 7.65625 -7.671875 C 8.394531 -6.847656 8.765625 -5.742188 8.765625 -4.359375 C 8.765625 -2.984375 8.394531 -1.882812 7.65625 -1.0625 C 6.925781 -0.238281 5.953125 0.171875 4.734375 0.171875 C 3.503906 0.171875 2.519531 -0.238281 1.78125 -1.0625 C 1.039062 -1.882812 0.671875 -2.984375 0.671875 -4.359375 C 0.671875 -5.742188 1.039062 -6.847656 1.78125 -7.671875 C 2.519531 -8.492188 3.503906 -8.90625 4.734375 -8.90625 Z M 4.734375 -8.90625 "/>
</symbol>
</g>
</defs>
<g id="surface28913">
<rect x="0" y="0" width="300" height="300" style="fill:rgb(100%,100%,100%);fill-opacity:1;stroke:none;"/>
<path style="fill:none;stroke-width:1.2;stroke-linecap:butt;stroke-linejoin:miter;stroke:rgb(0%,0%,0%);stroke-opacity:1;stroke-miterlimit:10;" d="M 128.96875 239.585938 L 122.503906 226.523438 "/>
<path style="fill:none;stroke-width:1.2;stroke-linecap:butt;stroke-linejoin:miter;stroke:rgb(0%,0%,100%);stroke-opacity:1;stroke-miterlimit:10;" d="M 122.503906 226.523438 L 116.042969 213.457031 "/>
<path style="fill:none;stroke-width:1.2;stroke-linecap:butt;stroke-linejoin:miter;stroke:rgb(0%,0%,100%);stroke-opacity:1;stroke-miterlimit:10;" d="M 116.042969 213.457031 L 101.496094 212.519531 "/>
<path style="fill:none;stroke-width:1.2;stroke-linecap:butt;stroke-linejoin:miter;stroke:rgb(0%,0%,0%);stroke-opacity:1;stroke-miterlimit:10;" d="M 101.496094 212.519531 L 86.949219 211.582031 "/>
<path style="fill:none;stroke-width:1.2;stroke-linecap:butt;stroke-linejoin:miter;stroke:rgb(0%,0%,0%);stroke-opacity:1;stroke-miterlimit:10;" d="M 132.210938 189.195312 L 124.128906 201.328125 "/>
<path style="fill:none;stroke-width:1.2;stroke-linecap:butt;stroke-linejoin:miter;stroke:rgb(0%,0%,100%);stroke-opacity:1;stroke-miterlimit:10;" d="M 124.128906 201.328125 L 116.042969 213.457031 "/>
<path style=" stroke:none;fill-rule:nonzero;fill:rgb(100%,100%,100%);fill-opacity:1;" d="M 112.042969 206.457031 L 121.042969 206.457031 L 121.042969 220.457031 L 112.042969 220.457031 Z M 112.042969 206.457031 "/>
<g style="fill:rgb(0%,0%,100%);fill-opacity:1;">
  <use xlink:href="#glyph0-1" x="112.042969" y="217.595703"/>
</g>
<path style="fill:none;stroke-width:1.2;stroke-linecap:butt;stroke-linejoin:miter;stroke:rgb(0%,0%,0%);stroke-opacity:1;stroke-miterlimit:10;" d="M 86.949219 211.582031 L 74.023438 185.453125 "/>
<path style="fill:none;stroke-width:1.2;stroke-linecap:butt;stroke-linejoin:miter;stroke:rgb(0%,0%,0%);stroke-opacity:1;stroke-miterlimit:10;" d="M 74.023438 185.453125 L 90.191406 161.195312 "/>
<path style="fill:none;stroke-width:1.2;stroke-linecap:butt;stroke-linejoin:miter;stroke:rgb(0%,0%,0%);stroke-opacity:1;stroke-miterlimit:10;" d="M 90.191406 161.195312 L 77.269531 135.0625 "/>
<path style="fill:none;stroke-width:1.2;stroke-linecap:butt;stroke-linejoin:miter;stroke:rgb(0%,0%,0%);stroke-opacity:1;stroke-miterlimit:10;" d="M 95.050781 155.539062 L 84.707031 134.632812 "/>
<path style="fill:none;stroke-width:1.2;stroke-linecap:butt;stroke-linejoin:miter;stroke:rgb(0%,0%,0%);stroke-opacity:1;stroke-miterlimit:10;" d="M 119.285156 163.066406 L 90.191406 161.195312 "/>
<path style="fill:none;stroke-width:1.2;stroke-linecap:butt;stroke-linejoin:miter;stroke:rgb(0%,0%,0%);stroke-opacity:1;stroke-miterlimit:10;" d="M 77.269531 135.0625 L 93.4375 110.804688 "/>
<path style="fill:none;stroke-width:1.2;stroke-linecap:butt;stroke-linejoin:miter;stroke:rgb(0%,0%,0%);stroke-opacity:1;stroke-miterlimit:10;" d="M 77.269531 135.0625 L 48.175781 133.191406 "/>
<path style="fill:none;stroke-width:1.2;stroke-linecap:butt;stroke-linejoin:miter;stroke:rgb(0%,0%,0%);stroke-opacity:1;stroke-miterlimit:10;" d="M 93.4375 110.804688 L 122.527344 112.675781 "/>
<path style="fill:none;stroke-width:1.2;stroke-linecap:butt;stroke-linejoin:miter;stroke:rgb(0%,0%,0%);stroke-opacity:1;stroke-miterlimit:10;" d="M 95.90625 117.835938 L 119.179688 119.332031 "/>
<path style="fill:none;stroke-width:1.2;stroke-linecap:butt;stroke-linejoin:miter;stroke:rgb(0%,0%,0%);stroke-opacity:1;stroke-miterlimit:10;" d="M 93.4375 110.804688 L 86.972656 97.738281 "/>
<path style="fill:none;stroke-width:1.2;stroke-linecap:butt;stroke-linejoin:miter;stroke:rgb(100%,0%,0%);stroke-opacity:1;stroke-miterlimit:10;" d="M 86.972656 97.738281 L 80.511719 84.671875 "/>
<path style="fill:none;stroke-width:1.2;stroke-linecap:butt;stroke-linejoin:miter;stroke:rgb(0%,0%,0%);stroke-opacity:1;stroke-miterlimit:10;" d="M 122.527344 112.675781 L 135.453125 138.804688 "/>
<path style="fill:none;stroke-width:1.2;stroke-linecap:butt;stroke-linejoin:miter;stroke:rgb(0%,0%,0%);stroke-opacity:1;stroke-miterlimit:10;" d="M 122.527344 112.675781 L 130.613281 100.546875 "/>
<path style="fill:none;stroke-width:1.2;stroke-linecap:butt;stroke-linejoin:miter;stroke:rgb(100%,0%,0%);stroke-opacity:1;stroke-miterlimit:10;" d="M 130.613281 100.546875 L 138.695312 88.417969 "/>
<path style="fill:none;stroke-width:1.2;stroke-linecap:butt;stroke-linejoin:miter;stroke:rgb(0%,0%,0%);stroke-opacity:1;stroke-miterlimit:10;" d="M 135.453125 138.804688 L 119.285156 163.066406 "/>
<path style="fill:none;stroke-width:1.2;stroke-linecap:butt;stroke-linejoin:miter;stroke:rgb(0%,0%,0%);stroke-opacity:1;stroke-miterlimit:10;" d="M 139.542969 145.035156 L 126.609375 164.445312 "/>
<path style="fill:none;stroke-width:1.2;stroke-linecap:butt;stroke-linejoin:miter;stroke:rgb(0%,0%,0%);stroke-opacity:1;stroke-miterlimit:10;" d="M 164.546875 140.679688 L 135.453125 138.804688 "/>
<path style="fill:none;stroke-width:1.2;stroke-linecap:butt;stroke-linejoin:miter;stroke:rgb(0%,0%,0%);stroke-opacity:1;stroke-miterlimit:10;" d="M 119.285156 163.066406 L 132.210938 189.195312 "/>
<path style="fill:none;stroke-width:1;stroke-linecap:butt;stroke-linejoin:miter;stroke:rgb(0%,0%,0%);stroke-opacity:1;stroke-miterlimit:10;" d="M 132.210938 189.195312 L 132.210938 189.195312 M 135.125 189.90625 L 135.191406 188.867188 M 138.039062 190.617188 L 138.175781 188.535156 M 140.957031 191.328125 L 141.15625 188.207031 M 143.871094 192.035156 L 144.136719 187.875 M 146.785156 192.746094 L 147.121094 187.542969 M 149.699219 193.457031 L 150.101562 187.214844 M 152.613281 194.167969 L 153.082031 186.882812 M 155.527344 194.875 L 156.066406 186.550781 M 158.445312 195.585938 L 159.046875 186.222656 M 160.972656 196.203125 L 161.632812 185.933594 "/>
<path style="fill:none;stroke-width:1.2;stroke-linecap:butt;stroke-linejoin:miter;stroke:rgb(0%,0%,0%);stroke-opacity:1;stroke-miterlimit:10;" d="M 161.304688 191.070312 L 177.472656 166.808594 "/>
<path style="fill:none;stroke-width:1.2;stroke-linecap:butt;stroke-linejoin:miter;stroke:rgb(0%,0%,0%);stroke-opacity:1;stroke-miterlimit:10;" d="M 177.472656 166.808594 L 206.5625 168.683594 "/>
<path style="fill:none;stroke-width:1.2;stroke-linecap:butt;stroke-linejoin:miter;stroke:rgb(0%,0%,0%);stroke-opacity:1;stroke-miterlimit:10;" d="M 180.820312 160.152344 L 204.09375 161.648438 "/>
<path style="fill:none;stroke-width:1.2;stroke-linecap:butt;stroke-linejoin:miter;stroke:rgb(0%,0%,0%);stroke-opacity:1;stroke-miterlimit:10;" d="M 164.546875 140.679688 L 177.472656 166.808594 "/>
<path style="fill:none;stroke-width:1.2;stroke-linecap:butt;stroke-linejoin:miter;stroke:rgb(0%,0%,0%);stroke-opacity:1;stroke-miterlimit:10;" d="M 206.5625 168.683594 L 222.730469 144.421875 "/>
<path style="fill:none;stroke-width:1.2;stroke-linecap:butt;stroke-linejoin:miter;stroke:rgb(0%,0%,0%);stroke-opacity:1;stroke-miterlimit:10;" d="M 222.730469 144.421875 L 209.808594 118.292969 "/>
<path style="fill:none;stroke-width:1.2;stroke-linecap:butt;stroke-linejoin:miter;stroke:rgb(0%,0%,0%);stroke-opacity:1;stroke-miterlimit:10;" d="M 215.292969 144.851562 L 204.949219 123.945312 "/>
<path style="fill:none;stroke-width:1.2;stroke-linecap:butt;stroke-linejoin:miter;stroke:rgb(0%,0%,0%);stroke-opacity:1;stroke-miterlimit:10;" d="M 222.730469 144.421875 L 237.277344 145.359375 "/>
<path style="fill:none;stroke-width:1.2;stroke-linecap:butt;stroke-linejoin:miter;stroke:rgb(100%,0%,0%);stroke-opacity:1;stroke-miterlimit:10;" d="M 237.277344 145.359375 L 251.824219 146.296875 "/>
<path style="fill:none;stroke-width:1.2;stroke-linecap:butt;stroke-linejoin:miter;stroke:rgb(0%,0%,0%);stroke-opacity:1;stroke-miterlimit:10;" d="M 209.808594 118.292969 L 180.714844 116.417969 "/>
<path style="fill:none;stroke-width:1.2;stroke-linecap:butt;stroke-linejoin:miter;stroke:rgb(0%,0%,0%);stroke-opacity:1;stroke-miterlimit:10;" d="M 209.808594 118.292969 L 217.890625 106.164062 "/>
<path style="fill:none;stroke-width:1.2;stroke-linecap:butt;stroke-linejoin:miter;stroke:rgb(100%,0%,0%);stroke-opacity:1;stroke-miterlimit:10;" d="M 217.890625 106.164062 L 225.976562 94.03125 "/>
<path style="fill:none;stroke-width:1.2;stroke-linecap:butt;stroke-linejoin:miter;stroke:rgb(0%,0%,0%);stroke-opacity:1;stroke-miterlimit:10;" d="M 180.714844 116.417969 L 164.546875 140.679688 "/>
<path style="fill:none;stroke-width:1.2;stroke-linecap:butt;stroke-linejoin:miter;stroke:rgb(0%,0%,0%);stroke-opacity:1;stroke-miterlimit:10;" d="M 184.804688 122.648438 L 171.871094 142.058594 "/>
<path style="fill:none;stroke-width:1.2;stroke-linecap:butt;stroke-linejoin:miter;stroke:rgb(100%,0%,0%);stroke-opacity:1;stroke-miterlimit:10;" d="M 225.976562 94.03125 L 219.511719 80.96875 "/>
<path style="fill:none;stroke-width:1.2;stroke-linecap:butt;stroke-linejoin:miter;stroke:rgb(0%,0%,0%);stroke-opacity:1;stroke-miterlimit:10;" d="M 219.511719 80.96875 L 213.050781 67.902344 "/>
<path style=" stroke:none;fill-rule:nonzero;fill:rgb(100%,100%,100%);fill-opacity:1;" d="M 220.976562 87.03125 L 230.976562 87.03125 L 230.976562 101.03125 L 220.976562 101.03125 Z M 220.976562 87.03125 "/>
<g style="fill:rgb(100%,0%,0%);fill-opacity:1;">
  <use xlink:href="#glyph0-2" x="220.976562" y="98.169922"/>
</g>
<path style="fill:none;stroke-width:1.2;stroke-linecap:butt;stroke-linejoin:miter;stroke:rgb(100%,0%,0%);stroke-opacity:1;stroke-miterlimit:10;" d="M 251.824219 146.296875 L 258.289062 159.359375 "/>
<path style="fill:none;stroke-width:1.2;stroke-linecap:butt;stroke-linejoin:miter;stroke:rgb(0%,0%,0%);stroke-opacity:1;stroke-miterlimit:10;" d="M 258.289062 159.359375 L 264.75 172.425781 "/>
<path style=" stroke:none;fill-rule:nonzero;fill:rgb(100%,100%,100%);fill-opacity:1;" d="M 246.824219 139.296875 L 256.824219 139.296875 L 256.824219 153.296875 L 246.824219 153.296875 Z M 246.824219 139.296875 "/>
<g style="fill:rgb(100%,0%,0%);fill-opacity:1;">
  <use xlink:href="#glyph0-2" x="246.824219" y="150.435547"/>
</g>
<path style="fill:none;stroke-width:1.2;stroke-linecap:butt;stroke-linejoin:miter;stroke:rgb(100%,0%,0%);stroke-opacity:1;stroke-miterlimit:10;" d="M 138.695312 88.417969 L 132.234375 75.351562 "/>
<path style="fill:none;stroke-width:1.2;stroke-linecap:butt;stroke-linejoin:miter;stroke:rgb(0%,0%,0%);stroke-opacity:1;stroke-miterlimit:10;" d="M 132.234375 75.351562 L 125.769531 62.285156 "/>
<path style=" stroke:none;fill-rule:nonzero;fill:rgb(100%,100%,100%);fill-opacity:1;" d="M 133.695312 81.417969 L 143.695312 81.417969 L 143.695312 95.417969 L 133.695312 95.417969 Z M 133.695312 81.417969 "/>
<g style="fill:rgb(100%,0%,0%);fill-opacity:1;">
  <use xlink:href="#glyph0-2" x="133.695312" y="92.556641"/>
</g>
<path style="fill:none;stroke-width:1.2;stroke-linecap:butt;stroke-linejoin:miter;stroke:rgb(100%,0%,0%);stroke-opacity:1;stroke-miterlimit:10;" d="M 80.511719 84.671875 L 88.59375 72.542969 "/>
<path style="fill:none;stroke-width:1.2;stroke-linecap:butt;stroke-linejoin:miter;stroke:rgb(0%,0%,0%);stroke-opacity:1;stroke-miterlimit:10;" d="M 88.59375 72.542969 L 96.679688 60.414062 "/>
<path style=" stroke:none;fill-rule:nonzero;fill:rgb(100%,100%,100%);fill-opacity:1;" d="M 75.511719 77.671875 L 85.511719 77.671875 L 85.511719 91.671875 L 75.511719 91.671875 Z M 75.511719 77.671875 "/>
<g style="fill:rgb(100%,0%,0%);fill-opacity:1;">
  <use xlink:href="#glyph0-2" x="75.511719" y="88.810547"/>
</g>
<path style="fill:none;stroke-width:1.2;stroke-linecap:butt;stroke-linejoin:miter;stroke:rgb(0%,0%,0%);stroke-opacity:1;stroke-miterlimit:10;" d="M 51.25 131.667969 L 44.785156 118.605469 "/>
<path style="fill:none;stroke-width:1.2;stroke-linecap:butt;stroke-linejoin:miter;stroke:rgb(100%,0%,0%);stroke-opacity:1;stroke-miterlimit:10;" d="M 44.785156 118.605469 L 38.324219 105.539062 "/>
<path style="fill:none;stroke-width:1.2;stroke-linecap:butt;stroke-linejoin:miter;stroke:rgb(0%,0%,0%);stroke-opacity:1;stroke-miterlimit:10;" d="M 45.101562 134.710938 L 38.636719 121.644531 "/>
<path style="fill:none;stroke-width:1.2;stroke-linecap:butt;stroke-linejoin:miter;stroke:rgb(100%,0%,0%);stroke-opacity:1;stroke-miterlimit:10;" d="M 38.636719 121.644531 L 32.175781 108.578125 "/>
<path style=" stroke:none;fill-rule:nonzero;fill:rgb(100%,100%,100%);fill-opacity:1;" d="M 25.25 100.058594 L 35.25 100.058594 L 35.25 114.058594 L 25.25 114.058594 Z M 25.25 100.058594 "/>
<g style="fill:rgb(100%,0%,0%);fill-opacity:1;">
  <use xlink:href="#glyph0-2" x="25.25" y="111.197266"/>
</g>
</g>
</svg>

<svg xmlns="http://www.w3.org/2000/svg" xmlns:xlink="http://www.w3.org/1999/xlink" width="300pt" height="300pt" viewBox="0 0 300 300"><defs><symbol overflow="visible"><path d="M.594 2.125V-8.47h6V2.126zm.672-.672h4.671V-7.78h-4.67zm0 0"/></symbol><symbol overflow="visible" id="a"><path d="M1.172-8.75h1.594l3.89 7.313V-8.75h1.14V0H6.204L2.328-7.313V0H1.172zm0 0"/></symbol><symbol overflow="visible" id="b"><path d="M4.734-7.953c-.867 0-1.554.324-2.062.97-.5.635-.75 1.51-.75 2.624 0 1.094.25 1.965.75 2.61.508.637 1.195.953 2.062.953.852 0 1.532-.316 2.032-.953.507-.645.765-1.516.765-2.61 0-1.113-.257-1.988-.764-2.624-.5-.645-1.18-.97-2.032-.97zm0-.953c1.22 0 2.192.414 2.922 1.234.74.824 1.11 1.93 1.11 3.313 0 1.376-.37 2.477-1.11 3.298C6.926-.24 5.953.17 4.734.17c-1.23 0-2.214-.41-2.953-1.234C1.04-1.882.673-2.984.673-4.36c0-1.382.367-2.488 1.11-3.312.738-.82 1.722-1.234 2.952-1.234zm0 0"/></symbol></defs><g><path fill="#fff" d="M0 0h300v300H0z"/><path d="M128.97 239.586l-6.466-13.063" stroke-width="1.2" stroke="#000" stroke-miterlimit="10" fill="none"/><path d="M122.504 226.523l-6.46-13.066M116.043 213.457l-14.547-.937" stroke-width="1.2" stroke="#00f" stroke-miterlimit="10" fill="none"/><path d="M101.496 212.52l-14.547-.938M132.21 189.195l-8.08 12.133" stroke-width="1.2" stroke="#000" stroke-miterlimit="10" fill="none"/><path d="M124.13 201.328l-8.087 12.13" stroke-width="1.2" stroke="#00f" stroke-miterlimit="10" fill="none"/><path d="M112.043 206.457h9v14h-9zm0 0" fill="#fff"/><use xlink:href="#a" x="112.043" y="217.596" fill="#00f"/><path d="M86.95 211.582l-12.927-26.13M74.023 185.453l16.168-24.258M90.19 161.195l-12.92-26.132M95.05 155.54l-10.343-20.907M119.285 163.066l-29.094-1.87M77.27 135.063l16.168-24.258M77.27 135.063l-29.094-1.872M93.438 110.805l29.09 1.87M95.906 117.836l23.274 1.496M93.438 110.805l-6.465-13.067" stroke-width="1.2" stroke="#000" stroke-miterlimit="10" fill="none"/><path d="M86.973 97.738l-6.46-13.066" stroke-width="1.2" stroke="#f00" stroke-miterlimit="10" fill="none"/><path d="M122.527 112.676l12.926 26.13M122.527 112.676l8.086-12.13" stroke-width="1.2" stroke="#000" stroke-miterlimit="10" fill="none"/><path d="M130.613 100.547l8.082-12.13" stroke-width="1.2" stroke="#f00" stroke-miterlimit="10" fill="none"/><path d="M135.453 138.805l-16.168 24.26M139.543 145.035l-12.934 19.41M164.547 140.68l-29.094-1.875M119.285 163.066l12.926 26.13" stroke-width="1.2" stroke="#000" stroke-miterlimit="10" fill="none"/><path d="M132.21 189.195m2.915.71l.066-1.038m2.85 1.75l.136-2.082m2.78 2.793l.2-3.12m2.715 3.827l.267-4.16m2.648 4.87l.336-5.202m2.58 5.914l.402-6.242m2.51 6.953l.47-7.285m2.445 7.992l.54-8.324m2.378 9.036l.602-9.363m1.926 9.98l.66-10.27" stroke="#000" stroke-miterlimit="10" fill="none"/><path d="M161.305 191.07l16.168-24.26M177.473 166.81l29.09 1.874M180.82 160.152l23.274 1.496M164.547 140.68l12.926 26.13M206.563 168.684l16.167-24.262M222.73 144.422l-12.92-26.13M215.293 144.852l-10.344-20.907M222.73 144.422l14.547.937" stroke-width="1.2" stroke="#000" stroke-miterlimit="10" fill="none"/><path d="M237.277 145.36l14.547.937" stroke-width="1.2" stroke="#f00" stroke-miterlimit="10" fill="none"/><path d="M209.81 118.293l-29.095-1.875M209.81 118.293l8.08-12.13" stroke-width="1.2" stroke="#000" stroke-miterlimit="10" fill="none"/><path d="M217.89 106.164l8.087-12.133" stroke-width="1.2" stroke="#f00" stroke-miterlimit="10" fill="none"/><path d="M180.715 116.418l-16.168 24.262M184.805 122.648l-12.934 19.41" stroke-width="1.2" stroke="#000" stroke-miterlimit="10" fill="none"/><path d="M225.977 94.03l-6.465-13.06" stroke-width="1.2" stroke="#f00" stroke-miterlimit="10" fill="none"/><path d="M219.512 80.97l-6.46-13.068" stroke-width="1.2" stroke="#000" stroke-miterlimit="10" fill="none"/><path d="M220.977 87.03h10v14h-10zm0 0" fill="#fff"/><use xlink:href="#b" x="220.977" y="98.17" fill="#f00"/><path d="M251.824 146.297l6.465 13.062" stroke-width="1.2" stroke="#f00" stroke-miterlimit="10" fill="none"/><path d="M258.29 159.36l6.46 13.066" stroke-width="1.2" stroke="#000" stroke-miterlimit="10" fill="none"/><path d="M246.824 139.297h10v14h-10zm0 0" fill="#fff"/><use xlink:href="#b" x="246.824" y="150.436" fill="#f00"/><path d="M138.695 88.418l-6.46-13.066" stroke-width="1.2" stroke="#f00" stroke-miterlimit="10" fill="none"/><path d="M132.234 75.352l-6.464-13.067" stroke-width="1.2" stroke="#000" stroke-miterlimit="10" fill="none"/><path d="M133.695 81.418h10v14h-10zm0 0" fill="#fff"/><use xlink:href="#b" x="133.695" y="92.557" fill="#f00"/><path d="M80.512 84.672l8.082-12.13" stroke-width="1.2" stroke="#f00" stroke-miterlimit="10" fill="none"/><path d="M88.594 72.543l8.086-12.13" stroke-width="1.2" stroke="#000" stroke-miterlimit="10" fill="none"/><path d="M75.512 77.672h10v14h-10zm0 0" fill="#fff"/><use xlink:href="#b" x="75.512" y="88.811" fill="#f00"/><path d="M51.25 131.668l-6.465-13.063" stroke-width="1.2" stroke="#000" stroke-miterlimit="10" fill="none"/><path d="M44.785 118.605l-6.46-13.066" stroke-width="1.2" stroke="#f00" stroke-miterlimit="10" fill="none"/><path d="M45.102 134.71l-6.465-13.065" stroke-width="1.2" stroke="#000" stroke-miterlimit="10" fill="none"/><path d="M38.637 121.645l-6.46-13.067" stroke-width="1.2" stroke="#f00" stroke-miterlimit="10" fill="none"/><path d="M25.25 100.06h10v14h-10zm0 0" fill="#fff"/><use xlink:href="#b" x="25.25" y="111.197" fill="#f00"/></g></svg>
